!!!OTL: RAEGE RAEGE TROPFE
!!!ARE: Europa, Mitteleuropa, Deutschland; France, Elsass
!!!SCT: E1843
!!!YEM: Copyright 1995, estate of Helmut Schaffrath.
**kern
*ICvox
*Ivox
*M2/4
*k[f#]
*G:
=1
{8dd
8ee
8dd
8ee
=2
4dd
4b}
=3
{8dd
8ee
8dd
8ee
=4
4dd
4b}
=5
{8dd
8ee
16dd
16dd
8ee
=6
8dd
8cc
4b}
=7
{8dd
8ee
16dd
16dd
8ee
=8
8dd
8cc
8b
8r}
==
!!!AGN: Kinder - Lied, Regen - Lied
!!!ONB: ESAC (Essen Associative Code) Database: ERK3
!!!AMT: simple duple
!!!AIN: vox
!!!EED: Helmut Schaffrath
!!!EEV: 1.0
*-
